X:1
T:In Principio erat Verbum
T:Ivo de Vento c. 1544-1572
T:In Principio erat Verbum
T:(C) Wim Looyestijn - 2017. May be freely copied for non-commercial use.
T:(C) Wim Looyestijn - 2017. May be freely copied for non-commercial use.
T:(C) Wim Looyestijn - 2017. May be freely copied for non-commercial use.
T:(C) Wim Looyestijn - 2017. May be freely copied for non-commercial use.
T:(C) Wim Looyestijn - 2017. May be freely copied for non-commercial use.
T:(C) Wim Looyestijn - 2017. May be freely copied for non-commercial use.
T:(C) Wim Looyestijn - 2017. May be freely copied for non-commercial use.
T:(C) Wim Looyestijn - 2017. May be freely copied for non-commercial use.
T:(C) Wim Looyestijn - 2017. May be freely copied for non-commercial use.
T:(C) Wim Looyestijn - 2017. May be freely copied for non-commercial use.
T:(C) Wim Looyestijn - 2017. May be freely copied for non-commercial use.
T:(C) Wim Looyestijn - 2017. May be freely copied for non-commercial use.
T:(C) Wim Looyestijn - 2017. May be freely copied for non-commercial use.
T:(C) Wim Looyestijn - 2017. May be freely copied for non-commercial use.
T:(C) Wim Looyestijn - 2017. May be freely copied for non-commercial use.
T:(C) Wim Looyestijn - 2017. May be freely copied for non-commercial use.
T:(C) Wim Looyestijn - 2017. May be freely copied for non-commercial use.
T:(C) Wim Looyestijn - 2017. May be freely copied for non-commercial use.
T:(C) Wim Looyestijn - 2017. May be freely copied for non-commercial use.
T:(C) Wim Looyestijn - 2017. May be freely copied for non-commercial use.
T:(C) Wim Looyestijn - 2017. May be freely copied for non-commercial use.
T:(C) Wim Looyestijn - 2017. May be freely copied for non-commercial use.
T:(C) Wim Looyestijn - 2017. May be freely copied for non-commercial use.
T:(C) Wim Looyestijn - 2017. May be freely copied for non-commercial use.
T:(C) Wim Looyestijn - 2017. May be freely copied for non-commercial use.
T:(C) Wim Looyestijn - 2017. May be freely copied for non-commercial use.
T:(C) Wim Looyestijn - 2017. May be freely copied for non-commercial use.
C:Ivo de Vento
C:c. 1544-1572
Z:(C) Wim Looyestijn - 2017. May be freely copied for non-commercial use.
%%score [ 1 2 3 4 ]
L:1/8
Q:1/4=160
M:4/4
K:C
V:1 treble nm="Discantus" snm="D"
V:2 tenor nm="Altus" snm="A"
V:3 alto nm="Tenor" snm="T"
V:4 bass3 nm="Bassus" snm="B"
V:1
 x8 | x8 |[K:F] x8 |[K:Bb]"^Prima pars" F8 c8- | c4 c4 c4 d4 | c4 B4 A4 G2 A2 | %6
w: |||In _|_ prin- ci- pi-|o e- rat ver- *|
 B2 A2 c4- c2 A2 B2 c2 | A6 GF G2 A2 G4 | A16 | z16 | z16 | F8 B4 B4 | A8 G4 c4- | c4 A4 B8 | %14
w: ||bum,|||et ver- bum|e- rat a-|* pud De-|
 A8 z8 | z16 | z16 | z16 | G8 A4 A4 | B8 A4 G4- | G2 F2 F6 =ED E4 | F4 F4 c8 | c4 d8 B4 | %23
w: um,||||et De- us|e- rat ver-||bum, hoc e-|rat in prin-|
 c6 c2 A4 B4- | B4 G4 A6 GF | G8 A8 | z16 | z16 | z4 f4 e4 c4 | d8 d4 d4 | c4 A4 B8 | G4 G6 G2 G4 | %32
w: ci- pi- o a-|* pud De- * *|* um,|||et si- ne|ip- so, et|si- ne ip-|so fac- tum est|
 E6 F2 G8 | G16 | z16 | z4 c4 c4 c4 | B4 G8 B4- | B4 A4 G4 G4 | G6 A2 B8- | B4 F4 z4 c4 | %40
w: ni- * *|hil,||quod fac- tum|est: in ip-|* so vi- ta|e- * *|* rat, et|
 c4 c4 B4 G4 | B8 A6 GF | G4 G4 A8 | z16 | z16 | z8 G8 | A6 A2 A4 B4 | A8 z4 F4 | B4 A4 G8 | %49
w: vi- ta e- rat|lux ho- * *|* mi- num,|||et|te- ne- brae e-|am non|com- pre- hen-|
 F8 F8 | z4 B4 e6 d2 | c4 B4 B2 A2 G2 F2 | G4 G4 A8 | F8 B4 A4 | G4 G4 F4 F4 | F4 B4 A4 G4- | %56
w: de- runt,|non com- *|* pre- hen- * * *|* de- runt,|non com- pre-|hen- de- runt, non|com- pre- hen- de-|
 G2 F2 F6 =ED E4 | F16- | F16- | F16 ||"^Secunda pars" z16 | z16 | z16 | z16 | z16 | z16 | z16 | %67
w: |runt.|_|||||||||
 z16 | c12 c4 | B6 c2 d8 | c4 f4 e4 d4- | d4 c6 =BA B4 | c4 c8 A4 | B8 G4 c4 | B4 A4 B8- | B8 G8 | %76
w: |Fu- it|ho- * *|mo mi- sus a|_ De- * * *|o, cu- i|no- men e-|rat Jo- han-|* nes,|
 z16 | z16 | z8 z4 c4 | d8 B4 B4 | e8 d4 c4- | c2 B2 B8 A4 | B4 F4 A4 B4 | B4 A4 B4 F4 | %84
w: ||hic|ve- nit in|tes- ti- mo-|* * * ni-|um, ut tes- ti-|mo- ni- um, ut|
 B2 A2 d4 c4 B4- | B2 A2 G2 F2 G6 G2 | A4 A8 A4 | B8 G4 G4 | F6 F2 F4 F4 | F8 B4 B4- | %90
w: tes- * * ti- mo-|* * * * * ni-|um per- hi-|be- ret de|lum- mi- ne, ut|om- nes cre-|
 B2 B2 G4 _A4 G4- | G2 F2 F6 =ED E4 | F8 z4 G4 | c8 A4 A4 | B8 G8 | A16 | z16 | z16 | z16 | %99
w: * de- rent per il-||lum, non|e- rat il-|le _|lux,||||
 z8 c8- | c4 c4 B4 c4 | d4 B4 A4 d4- | d4 B4 e8 | d4 c4 c4 B4 | c8 z4 G4 | B4 B4 c8 | B8 z8 | %107
w: sed|_ ut tes- ti-|mo- ni- um per-|* hi- be-|ret de lu- mi-|ne, e-|rat lux ve-|ra,|
 c12 B4 | A6 G2 F8 | B12 A4 | G4 G4 F8 | B6 B2 B4 B4 | _A4 A4 G8 | G4 G4 G4 G4 | B8 c8 | B8 G8 | %116
w: quae il-|lu- mi- nat|om- nem|ho- mi- nem|ve- ni- en- tem|in hunc mun-|dum, in mun- do|e- *|rat, et|
 E4 C4 G8 | B4 B4 c6 c2 | B16 | z4 c4 d4 f4 | e6 dc d2 c2 c4- | c2 =BA B4 c8 | z8 z4 G4 | %123
w: mun- dus per|ip- sum fac- tus|est,|et mun- dus|e- * * * * *|* * * * um,|et|
 G6 A2 B4 c4 | B8 A8 | F12 G4 | E6 F2 G8 | G16 ||"^Tertia pars" c8 A8- | A4 A4 B4 B4- | %130
w: mun- * * dus|e- um|non co-|gno- * *|vit.|In pro-|* pri- a ve-|
 B2 c2 A4 G8 | z16 | z16 | z8 G8 | A4 c4 B8 | A4 A4 A8 | B4 G6 F2 F4- | F2 =ED E4 F8 | A12 A4 | %139
w: * * * nit,|||et|su- i e-|um non re-|ce- pe- * *|* * * * runt.|Quot- quot|
 d8 B4 B4- | B2 B2 e4 c4 d4- | d2 c2 c6 =BA B4 | c8 G8- | G4 G4 A8 | F4 B8 A4 | G8 A8 | %146
w: au- tem re-|* ce- pe- runt e-||um, de-|* dit e-|is po- tes-|ta- tem|
 A6 A2 B4 B4- | B4 A4 G4 F4 | G8 G8- | G4 G4 A8 | B8 z4 F4 | B6 B2 B4 B4 | A16 | c8 B4 A4- | %154
w: fi- li- os De-|* i fi- e-|ri, his|_ qui cre-|dunt in|no- mi- ne e-|jus,|qui non ex|
 A4 G4 A6 A2 | G8 z8 | z8 z4 c4- | c4 B4 G4 B4 | A6 GF G4 G4 | A4 B8 B4 | B4 A4 G6 G2 | F16 | z16 | %163
w: _ san- gui- ni-|bus,|qui|_ non ex san-|gui- * * * ni-|bus, qui non|ex san- gui- ni-|bus,||
 z16 | z8 z4 e4- | e4 d8 c4- | c4 B6 B2 A4 | B4 G6 F2 F4- | F2 =ED E4 F8 | z16 | z16 | A8 A8 | %172
w: |ne-|* que ex|_ vo- lun- ta-|te vi- * *|* * * * ri,|||Et ver-|
 B8 G8 | A12 B4 | c6 c2 F8 | G8 B4 B4 | B8 _A4 A4 | G8 G8 | z16 | z16 | z8 G6 G2 | A4 B4 G4 c4- | %182
w: * bum|ca- ro|fac- tum est,|et ha- bi-|ta- vit in|no- bis,|||glo- ri-|am qua- si u-|
 c4 A4 d6 d2 | c4 B4 A2 F2 B4- | B2 AG A4 B8 | z16 | z16 | z8 z4 G4 | c6 B2 A4 B4 | G8 A4 A4- | %190
w: * ni- ge- ni-|ti a Pa- * *|* * * * tre,|||et|ve- * * ri-|ta- tis, et|
 A4 B6 B2 A4 | B4 F4 B6 A2 | G4 G4 A8 | B8 z8 | z8 z4 G4 | c6 B2 A4 B4 | G8 A4 A4 | %197
w: _ ve- ri- ta-|tis, et ve- *|* ri- ta-|tis,|et|ve- * * ri-|ta- tis, et|
 A2 F2 B4 A4 G4- | G2 F2 F6 =ED E4 | F16- | F16- | F16 |] %202
w: ve- * * ri- ta-||tis.|_||
V:2
 x8 | x8 |[K:F][K:treble] x8 |[K:Bb] z8 C8 | F12 F4 | F4 G4 F4 E4 | D4 C2 D2 E2 F2 G2 E2 | %7
w: |||In|_ prin-|ci- pi- o e-|rat ver- * * * * *|
 F2 E2 C2 D2 E2 F4 E2 | F8 z8 | z16 | z16 | z8 z4 B,4 | C4 D4 E8 | C4 F2 E2 D2 C2 D4 | %14
w: |bum,|||et|ver- bum e-|rat a- * * * *|
 C4 D6 CB, C4 | D8 z8 | z16 | z8 z4 F4- | F2 =ED E4 F8 | F4 F8 E4 | D4 C2 B,2 C8 | C8 z4 C4 | %22
w: pud De- * * *|um,||et|_ _ _ _ De-|us e- rat|ver- * * *|bum, hoc|
 F4 F4 G8 | E4 F6 F2 D4 | E8 C4 F4- | F2 =ED E4 F8 | z16 | z8 z4 G4 | F4 D4 G6 A2 | B8 B4 B4 | %30
w: e- rat in|prin- ci- pi- o|a- pud De-|* * * * um,||et|si- ne ip- *|* so, et|
 A4 F4 G8 | E4 E6 E2 C4 | C8 D8 | E8 z4 G4 | G4 G4 F4 D4 | F4 F4 E6 F2 | G4 D4 D6 E2 | F8 E8 | %38
w: si- ne ip-|so fac- tum est|ni- *|hil, quod|fac- tum est: in|ip- so vi- *|* ta e- *|* rat,|
 z4 G4 G4 G4 | F4 D4 E8 | E4 F4 G4 D4- | D4 G6 F2 F4- | F4 =E4 F8- | F8 z8 | z16 | z8 E8 | %46
w: et vi- ta|e- rat lux|ho- mi- num, lux|_ ho- * *|* mi- num,|_||et|
 F6 F2 F4 F4 | F8 F8 | E4 F4 D4 E4 | C8 D8 | G6 F2 E4 G4 | A4 G6 F2 F4- | F2 =ED E4 F4 C4 | %53
w: te- ne- brae e-|am non|com- pre- hen- de-|runt, non|com- * * pre-|hen- de- * *|* * * * runt, non|
 D6 CD E4 F4 | D4 E4 C8 | D8 C4 C4 | D8 C8 | C8 D8 | D4 C4 B,4 D4 | C16 || z16 | z16 | z16 | z16 | %64
w: com- * * * pre-|hen- de- runt,|non com- pre-|hen- de-|runt, non|com- pre- hen- de-|runt.|||||
 z16 | z16 | z16 | z8 F8- | F4 F4 E6 F2 | G8 F4 B4 | A4 F4 G6 F2 | E6 DC D8 | C8 F8 | D4 E8 C4 | %74
w: |||Fu-|* it ho- *|* mo mi-|sus a De- *||o, cu-|i no- men|
 F8 D4 G4- | G4 F6 =ED E4 | F8 z8 | z16 | z16 | z4 F4 G8 | E4 E4 F6 E2 | D4 E4 C6 C2 | %82
w: e- rat Jo-|* han- * * *|nes,|||hic ve-|nit in tes- *|* ti- mo- ni-|
 B,4 B,4 C4 E4 | D4 C4 B,4 B,4 | D4 F4 E2 C2 G4- | G2 F2 F8 E4 | F4 F8 F4 | F8 E4 E4 | C6 C2 D8 | %89
w: um, ut tes- ti-|mo- ni- um, ut|tes- ti- mo- * *|* * * ni-|um per- hi-|be- ret de|lum- mi- ne,|
 D8 G8 | G4 E8 E4 | C4 C4 C8 | D4 D4 G8- | G8 F4 F4 | G2 F2 F6 =ED E4 | F8 z8 | z16 | z16 | z16 | %99
w: ut om-|nes cre- de-|rent per il-|lum, non e-|* rat il-|le _ _ _ _ _|lux,||||
 F12 F4 | E4 F4 G4 E4 | D4 G8 F4 | G8 C4 E4 | F6 C2 E4 D4 | E4 E4 D4 D4 | B,2 G,2 G6 FE F4 | %106
w: sed ut|tes- ti- mo- ni-|um per- hi-|be- ret de|lu- mi- ne, e-|rat lux ve- *||
 G4 G8 F4 | E4 D4 C8 | z4 F8 E4 | D4 C4 B,8 | B,6 B,2 D4 D4 | G6 G2 F4 G4 | E4 F4 D8 | %113
w: ra, quae il-|lu- mi- nat|om- nem|ho- mi- nem|ve- ni- en- tem,|ve- ni- en- tem|in hunc mun-|
 E4 E4 E4 E4 | F2 D2 G6 FE F4 | G4 D4 E4 E4 | E8 E4 E4 | F2 D2 G8 F4 | G4 D4 D4 E4 | %119
w: dum, in mun- do|e- * * * * *|rat, et mun- dus|per ip- sum|fac- * * tus|est, et mun- dus|
 D2 C2 C6 =B,A, B,4 | C8 z8 | z4 G4 F4 E4 | D2 C2 C6 =B,A, B,4 | C8 z8 | z8 z4 F4- | %125
w: e- * * * * *|um,|et mun- dus|e- * * * * *|um|non|
 F2 E2 D2 C2 B,4 B,4 | C8 D8 | C16 || z8 F8 | D12 D4 | E4 F6 =ED E4 | F4 C4 F8- | F4 F4 G8 | %133
w: _ _ _ _ _ co-|gno- *|vit.|In|pro- pri-|a ve- * * *|nit, in pro-|* pri- a|
 F8 E4 E4 | F4 F4 G8 | C4 C8 F4- | F4 E4 D4 C2 B,2 | C8 C4 C4- | C4 C4 F8 | D4 D8 D4 | G8 E4 F4- | %141
w: ve- nit, et|su- i e-|um non re-|* ce- pe- * *|* runt. Quot-|* quot au-|tem re- ce-|pe- runt e-|
 F2 E2 D2 C2 D8 | C4 E8 D4 | E8 F4 C4 | D4 D2 C2 D2 E2 F4- | F2 =ED E4 F8 | F6 F2 D4 G4- | %147
w: |um, de- dit|e- is po-|tes- ta- * * * *|* * * * tem|fi- li- os De-|
 G4 F4 E4 D2 C2 | D6 D2 E4 E4- | E4 E4 F8 | G8 F8 | G6 G2 G4 D4 | F8 z4 F4- | F4 E4 D4 C4 | %154
w: * i fi- * *|* e- ri, his|_ qui cre-|dunt in|no- mi- ne e-|jus, qui|_ non ex san-|
 D4 E4 F8 | z4 C4 F4 E4 | D4 G8 F4 | G4 G4 C4 G4- | G2 F2 F8 E4 | F4 D4 G4 G4 | F8 D4 E4 | %161
w: gui- ni- bus,|qui non ex|san- gui- ni-|bus, qui non ex|_ _ _ san-|gui- ni- bus, qui|non ex san-|
 C6 C2 D8 | F8 E4 D4 | D4 C4 E2 D2 G4- | G4 F4 E6 C2 | F8 F4 F4 | D4 F4 F4 F4 | %167
w: gui- ni- bus,|ne- que ex|vo- lun- ta- * *|* te car- *|* nis, ne-|que ex vo- lun-|
 E4 D4 E2 D2 C2 B,2 | C8 C4 C4 | C4 D4 E2 D2 F4 | G2 F2 F8 E4 | F8 F8 | B,4 D4 E8 | B,8 F8 | %174
w: ta- te vi- * * *|* ri, sed|ex De- o _ _|na- * * ti|sunt. Et|ver- bum ca-|* ro|
 E6 E2 D4 D4 | E4 E4 G8 | F4 F4 F6 E2 | D8 E4 E4 | F6 E2 D4 G4- | G2 G2 _A4 G6 FE | F8 E8 | z16 | %182
w: fac- tum est, et|ha- bi- ta-|vit in no- *|* bis, et|vi di- mus glo-|* ri- am e- * *|* jus,||
 z16 | z16 | z8 z4 F4 | G4 B6 A2 G2 F2 | E4 D2 C2 D2 G,2 C4- | C4 B,4 C8 | z4 C4 F4 B,4 | %189
w: ||ple-|num gra- * * *||* ti- ae|et ve- ri-|
 C8 C4 C4 | F4 E4 C8 | F4 D8 F4- | F4 E4 F8 | F4 F4 E4 F4 | D8 E8 | z4 C4 F4 B,4 | C8 C4 F4- | %197
w: ta- tis, et|ve- ri- ta-|tis, et ve-|* ri- ta-|tis, et ve- ri-|ta- tis,|et ve- ri-|ta- tis, et|
 F4 F8 E4 | D4 C2 B,2 C8 | C8 A,8 | B,4 B,4 D8 | C16 |] %202
w: _ ve- ri-|ta- * * *|tis, et|ve- ri- ta-|tis.|
V:3
 x8 | x8 |[K:F][K:treble-8] x8 |[K:Bb] z16 | z16 | z16 | z16 | F8 c8- | c4 c4 c4 d4 | %9
w: |||||||In _|_ prin- ci- pi-|
 c4 B4 A4 G2 A2 | B2 A2 c6 A2 B2 c2 | d2 c2 f6 =ed e4 | f8 z8 | z8 z4 B4 | f4 f4 e8 | d4 g6 f2 e4 | %16
w: o e- rat ver- *|||bum,|et|ver- bum e-|rat a- * *|
 d4 G2 A2 B2 c2 d4- | d2 c2 c6 =BA B4 | c8 c8 | d4 d4 c6 B2 | A4 F4 G8 | A16 | z16 | z16 | z16 | %25
w: pud De- * * * *||um, et|De- us e- *|* rat ver-|bum,||||
 c12 d4 | c4 B4 A4 G4 | z4 e6 d2 c4- | c4 B4 c4 e4 | f4 g4 f8 | f4 c4 e4 e4 | B8 c4 e4- | %32
w: om- ni-|a per ip- sum|fac- * *|* ta sunt, et|si- ne ip-|so fac- tum est|ni- hil, ni-|
 e2 d2 c6 =BA B4 | c4 e4 e4 e4 | d4 B4 d8 | c4 c8 c4 | d2 c2 B2 A2 B8 | c8 c4 e4 | e4 e4 d4 B4 | %39
w: |hil, quod fac- tum|est: in ip-|so vi- ta|e- * * * *|* rat, et|vi- ta e- rat|
 d8 c8- | c4 c4 d2 c2 B2 A2 | G8 z8 | z4 c4 c4 c4 | d6 c2 B4 e4- | e2 d2 c2 B2 A2 G2 c4- | %45
w: lux ho-|* mi- num, _ _ _|_|et lux in|te- ne- bris lu-||
 c2 =BA B4 c4 c4 | c6 c2 c4 d4 | c4 c4 d4 d4 | B4 c6 B2 B4- | B2 AG A4 B4 B4 | e6 d2 c2 d2 e4 | %51
w: * * * * cet, et|te- ne- brae e-|am non com- pre-|hen- de- * *|* * * * runt, non|com- * * * *|
 f4 B4 d8 | c4 c8 f4- | f4 d4 B4 c4- | c2 B2 B6 AG A4 | B4 F4 F4 G4 | A4 B2 A2 G2 F2 G4 | %57
w: pre- hen- de-|runt, non com-|* pre- hen- de-||runt, non com- pre-|hen- de- * * * *|
 A4 A6 F2 A4 | B4 c4 d4 B4 | A16 || z8 c8- | c4 c4 B6 c2 | d8 c4 f4 | e4 d8 c4- | %64
w: runt, non _ _|com- pre- hen- de-|runt.|Fu-|* it ho- *|* mo mi-|sus a De-|
 c2 =BA B4 c4 c4- | c4 A4 B8 | G4 d6 c2 B4 | G2 A2 B2 c2 d4 B4 | A8 G4 G4- | G4 G4 B8 | %70
w: * * * * o, cu-|* i no-|men e- * *|rat _ _ _ _ Jo-|han- nes, fu-|* it ho-|
 f4 d4 c4 B4 | c8 G8 | z4 A8 F4 | G8 c4 A4 | d6 c2 B4 G4 | B8 c4 c4 | d8 B4 B4 | e8 d4 c4- | %78
w: mo mi- sus a|De- o,|cu- i|no- men e-|rat _ _ Jo-|han- nes, hic|ve- nit in|tes- ti- mo-|
 c2 B2 B8 A4 | B4 B4 e8 | c4 c4 B4 A4 | B4 E4 F4 f4 | e2 dc d2 e2 f4 B4 | f6 f2 d8 | z4 B4 c4 e4 | %85
w: * * * ni-|um, hic ve-|nit in tes- ti-|mo- ni- um, ut|tes- * * * * * ti-|mo- ni- um,|ut tes- ti-|
 B4 d4 c4 c4- | c4 c4 c8 | d4 d4 c2 B2 B4- | B4 A4 B8 | z4 f4 e4 d4 | e4 B4 c4 B4 | A8 G8 | %92
w: mo- ni- um per-|* hi- be-|ret de lum- * *|* mi- ne,|ut om- nes|cre- de- rent per|il- *|
 B8 z4 B4 | e8 c4 c4 | d8 c8 | z8 c8- | c4 c4 B4 c4 | d4 B4 A4 d4- | d4 B4 c8 | F4 B4 A6 B2 | %100
w: lum, non|e- rat il-|le lux,|sed|_ ut tes- ti-|mo- ni- um per-|* hi- be-|ret de lu- *|
 c4 B2 A2 G4 c4 | B6 c2 d8 | z16 | z8 z4 G4- | G4 c8 B4 | d6 e2 c8 | d8 e8- | e8 e8 | f4 c4 d8 | %109
w: * * * * mi-|ne, _ _||e-|* rat lux|ve- * *|ra, quae|_ il-|lu- mi- nat|
 z8 d6 d2 | e8 B4 B4- | B2 G2 e4 d4 e2 d2 | c2 B2 c6 =BA B4 | c8 z4 c4 | d4 e4 c8 | d8 z4 g4 | %116
w: ve- ni-|en- tem in|_ _ _ hunc mun- *||dum, in|mun- do e-|rat, et|
 g8 g4 c4 | d4 e4 c6 c2 | d8 z8 | z16 | z4 g4 f4 e4 | d8 c8 | f8 e4 d4 | e6 f2 g2 f2 f4- | %124
w: mun- dus per|ip- sum fac- tus|est,||et mun- dus|e- um,|et mun- dus|e- * * * *|
 f2 =ed e4 f8 | d8 d4 e4- | e2 d2 c6 =BA B4 | c16 || z16 | z16 | z8 c8 | A12 A4 | B4 d6 c2 c4- | %133
w: * * * * um|non co- gno-||vit.|||In|pro- pri-|a ve- * *|
 c2 =BA B4 c8 | c8 d4 e4 | f8 f4 c4 | d4 c4 B2 A2 G2 F2 | G8 A8 | z16 | z16 | z16 | z16 | z16 | %143
w: * * * * nit,|et su- i|e- um non|re- ce- pe- * * *|* runt.||||||
 z16 | z16 | z8 z4 c4- | c2 c2 d4 B8 | c4 d6 c2 c4- | c4 B4 c8 | c12 c4 | e8 d4 d4- | %151
w: ||fi-|* li- os De-|i fi- * *|* e- ri,|his qui|cre- dunt in|
 d2 B2 e4 d4 B4 | c4 d4 c8 | z16 | z8 z4 f4- | f4 e4 d2 c2 B2 A2 | B4 d4 c6 c2 | d4 d4 e4 B4 | %158
w: _ _ _ no- mi-|ne e- jus,||qui|_ non ex _ _ _|_ san- gui- ni-|bus, qui non ex|
 d8 c6 c2 | F4 f4 e4 d2 c2 | d4 c4- c2 B2 B4- | B4 A4 B4 d4- | d4 c4 B4 B4- | B4 A4 B8 | %164
w: san- gui- ni-|bus, ex san- * *|* gui- * * *|* ni- bus, ne-|* que ex vo-|* lun- ta-|
 G4 B4- B2 AG A4 | B8 F8 | f4 d4 d4 c4 | B12 A4 | G8 A8 | A8 B4 c4 | d8 c4 B4 | c4 c8 d4- | %172
w: te car- * * * *|nis, ne-|que ex vo- lun-|ta- te|vi- ri,|sed ex De-|o na- ti|sunt. Et ver-|
 d4 B8 c4- | c2 B2 A4 F4 B4- | B4 A4 B4 B4 | B4 B4 e8 | d4 d8 c4- | c2 =BA B4 c4 c4 | d6 c2 B8 | %179
w: * bum ca-|* * * ro fac-|* tum est, et|ha- bi- ta-|vit in no-|* * * * bis, et|vi di- mus|
 e6 e2 e4 c4- | c2 =BA B4 c4 c4- | c2 c2 d4 e8 | c4 f8 d4 | e6 e2 f4 d4 | c8 B8 | z16 | z16 | %187
w: glo- ri- am e-|* * * * jus, glo-|* ri- am qua-|si u- ni-|ge- ni- ti a|Pa- tre,|||
 z4 d4 e6 d2 | c2 B2 A4 F4 f4- | f2 =ed e4 f8 | z4 B4 f6 e2 | d6 c2 B4 B4 | c8 F4 c4 | d8 B4 c4- | %194
w: et ve- *|* * * ri- ta-|* * * * tis,|et ve- *|* * * ri-|ta- tis, et|ve- ri- ta-|
 c2 =BA B4 c4 c4 | A8 F4 f4- | f2 =ed e4 f4 c4 | d4 d4 c6 B2 | A4 G2 F2 G8 | A4 A4 c4 c4 | %200
w: * * * * tis, et|ve- ri- ta-|* * * * tis, et|ve- ri- ta- *||tis, et ve- ri-|
 d6 c2 B8 | A16 |] %202
w: ta- * *|tis.|
V:4
 x8 | x8 |[K:F][K:bass] x8 |[K:Bb] z16 | z16 | z16 | z16 | z8 C,8 | F,12 F,4 | F,4 G,4 F,4 E,4 | %10
w: |||||||In|_ prin-|ci- pi- o e-|
 D,4 C,2 D,2 E,2 F,2 G,2 A,2 | B,2 A,2 A,2 G,F, G,8 | F,8 z8 | z16 | F,8 G,4 A,4 | B,8 G,4 C4- | %16
w: rat ver- * * * * *||bum,||et ver- bum|e- rat a-|
 C4 B,4 G,6 F,2 | E,4 D,2 C,2 D,8 | C,4 C,4 F,4 F,4 | B,,8 C,8 | D,8 C,8 | F,16 | z16 | z16 | z16 | %25
w: * pud De- *||um, et De- us|e- rat|ver- *|bum,||||
 z8 F,8- | F,4 G,4 F,4 E,4 | D,4 C,4 E,8 | D,8 C,4 C4 | B,4 G,4 B,8 | F,8 z4 E,4- | E,4 E,4 C,8 | %32
w: om-|* ni- a per|ip- sum fac-|ta sunt, et|si- ne ip-|so, fac-|* tum est|
 A,8 G,8 | C,4 C4 C4 C4 | B,4 G,4 B,4 B,4 | _A,12 A,4 | G,16 | F,8 z4 C4 | C4 C4 B,4 G,4 | %39
w: ni- *|hil, quod fac- tum|est: in ip- so|vi- ta|e-|rat, et|vi- ta e- rat|
 B,8 _A,8- | A,4 _A,4 G,8 | z16 | z8 F,8 | F,4 F,4 G,6 F,2 | E,4 F,6 E,2 D,2 C,2 | D,8 C,4 C,4 | %46
w: lux ho-|* mi- num,||et|lux in te- ne-|bris lu- * * *|* cet, et|
 F,6 F,2 F,4 B,,4 | F,4 F,4 B,6 A,2 | G,4 F,4 G,4 E,4 | F,8 z8 | z16 | z16 | z8 F,8 | %53
w: te- ne- brae e-|am non com- *|* pre- hen- de-|runt,|||non|
 B,6 A,2 G,4 F,4 | G,4 E,4 F,8 | B,,8 F,4 E,4 | D,4 B,,4 C,4 C,4 | F,6 E,2 D,6 C,2 | %58
w: com- * * pre-|hen- de- runt,|non com- pre-|hen- de- runt, non|com- * * *|
 B,,4 A,,4 B,,4 B,,4 | F,16 || F,12 F,4 | E,6 F,2 G,8 | F,4 B,4 A,4 F,4 | G,6 F,2 E,6 D,C, | %64
w: * pre- hen- de-|runt.|Fu- it|ho- * *|mo mi- sus a|De- * * * *|
 D,8 C,8 | F,8 D,4 E,4- | E,4 D,4 G,8 | E,4 D,4 B,,2 C,2 D,2 E,2 | F,8 C,8 | z16 | z16 | z16 | %72
w: * o,|cu- i no-|* men e-|rat Jo- han- * * *|* nes,||||
 z16 | z16 | z16 | z16 | z4 F,4 G,8 | E,4 E,4 F,6 E,2 | D,4 E,4 C,6 C,2 | B,,8 z8 | z16 | %81
w: ||||hic ve-|nit in tes- *|* ti- mo- ni-|um,||
 z8 z4 F,4 | G,4 B,4 F,4 G,4 | F,8 z8 | z16 | z16 | F,12 F,4 | B,8 E,4 E,4 | F,6 F,2 B,,4 B,,4 | %89
w: ut|tes- ti- mo- ni-|um,|||per- hi-|be- ret de|lum- mi- ne, ut|
 B,8 G,8 | E,6 E,2 C,4 E,4 | F,8 C,8 | z4 B,,4 E,8 | C,4 C,4 F,8 | B,,8 C,8 | z4 F,8 F,4 | %96
w: om- nes|cre- de- rent per|il- lum,|non e-|rat il- le|_ lux,|sed ut|
 E,4 F,4 G,4 E,4 | D,4 G,8 F,4 | G,8 E,4 C,4 | D,6 E,2 F,8 | z16 | z16 | z16 | z16 | C,8 G,8- | %105
w: tes- ti- mo- ni-|um per- hi-|be- ret de|lu- mi- ne,|||||e- rat|
 G,4 G,4 _A,8 | G,8 C8- | C4 B,4 _A,4 G,4 | F,8 B,8- | B,4 A,4 G,4 F,4 | E,8 z8 | E,6 E,2 B,4 E,4 | %112
w: _ lux ve-|ra, quae|_ il- lu- mi-|nat om-|* nem ho- mi-|nem|ve- ni- en- tem|
 _A,4 F,4 G,8 | C,8 C8 | B,4 G,4 _A,8 | G,8 C8 | C4 C4 C8 | B,4 G,4 _A,6 A,2 | G,8 G,8 | %119
w: in hunc mun-|dum, in|mun- do e-|rat, et|mun- dus per|ip- sum fac- tus|est, et|
 F,4 E,4 D,8 | C,8 z8 | G,8 _A,8 | F,8 G,8 | C,4 C4 B,4 A,4 | G,8 F,8 | B,12 G,4 | _A,8 G,8 | %127
w: mun- dus e-|um,|et mun-|dus e-|um, et mun- dus|e- um|non co-|gno- *|
 C,16 || z16 | z16 | z16 | F,8 D,8- | D,4 D,4 E,8 | D,8 C,4 C,4 | F,4 _A,4 G,8 | F,8 F,8 | %136
w: vit.||||In pro-|* pri- a|ve- nit, et|su- i e-|um non|
 B,,4 C,4 D,8 | C,8 F,8 | F,12 F,4 | B,8 G,4 G,4 | G,4 C8 B,4 | _A,8 G,8 | z4 C8 B,4 | C8 F,8 | %144
w: re- ce- pe-|* runt.|Quot- quot|au- tem re-|ce- pe- runt|e- um,|de- dit|e- is|
 B,6 A,2 G,4 F,4 | C8 F,8 | F,6 F,2 G,4 E,4- | E,4 F,4 G,4 _A,4 | G,8 z4 C,4- | C,4 C,4 F,8 | %150
w: po- * * tes-|ta- tem|fi- li- os De-|* i fi- e-|ri, his|_ qui cre-|
 E,4 E,4 B,6 A,2 | G,4 E,4 G,4 G,4 | F,16 | z16 | z16 | C8 B,4 G,4- | G,4 B,4 _A,6 A,2 | G,8 z8 | %158
w: dunt in no- *|* mi- ne e-|jus,|||qui non ex|_ san- gui- ni-|bus,|
 z8 z4 C4- | C4 B,4 G,6 A,2 | B,4 F,4 G,4 E,4 | F,8 z4 B,4- | B,4 A,4 G,8 | B,4 F,4 G,6 F,2 | %164
w: qui|_ non ex _|_ san- gui- ni-|bus, ne-|* que ex|vo- lun- ta- *|
 E,4 D,4 C,8 | B,,4 B,8 A,4 | B,8 F,4 F,4 | G,6 F,2 E,4 F,4 | C,8 F,8 | F,8 G,4 A,4 | B,8 A,4 G,4 | %171
w: * te car-|nis, ne- que|ex vo- lun-|ta- * * te|vi- ri,|sed ex De-|o na- ti|
 F,8 F,8 | G,8 E,8 | F,8 D,8 | C,6 C,2 B,,8 | E,8 E,4 E,4 | B,8 F,4 F,4 | G,8 C,8 | %178
w: sunt. Et|ver- bum|ca- ro|fac- tum est,|et ha- bi-|ta- vit in|no- bis,|
 z4 F,4 G,6 F,2 | E,4 C,6 C,2 E,4 | D,8 C,8 | z16 | z16 | z16 | z4 F,4 G,4 B,4- | %185
w: et vi di-|mus glo- ri- am|e- jus,||||ple- num gra-|
 B,2 A,2 G,2 F,2 E,6 F,2 | G,4 F,2 E,2 F,2 E,2 D,2 C,2 | D,6 D,2 C,8 | z16 | z4 C,4 F,6 E,2 | %190
w: ||* ti- ae||et ve- *|
 D,4 G,4 F,8 | B,,8 z8 | z8 z4 F,4 | B,6 A,2 G,4 F,4 | G,8 C,8 | z16 | z4 C,4 F,6 E,2 | %197
w: * ri- ta-|tis,|et|ve- * * ri-|ta- tis,||et ve- *|
 D,4 B,,4 C,8 | D,8 C,8 | F,8 F,4 F,4 | B,,16 | F,16 |] %202
w: * ri- ta-|* tis,|et ve- ri-|ta-|tis.|

